X:122
T:The Eyes of Owls
M:C|
L:1/8
C: Paul Gitlitz 1989
R:Reel
B:Giblitz Fancy
K:A
"A"EA (3AAA GA (3AAA|cA (3AAA fecA|"G"=GB (3BBB dBGB|"D"FA (3AAA cBAF|!
"A"EA (3AAA GA (3AAA|cA (3AAA fecA|"D"defg "A"afed|1"E"cABG "A"A2GF:|2"E"cABG "A"A2AB|!
|:"A"ce (3eee fece|aece bece|"D"df (3fff afdf| "E"eg (3ggg agfe|! 
"A"ce (3eee fece|aece bece|"D"defg "A"afed|1"E"cABG "A"A2AB:|2"E"cABG "A"A4|]
